svg/Outline/chevron-down-circle.svg

<svg viewBox="0 0 24 24" xmlns="http://www.w3.org/2000/svg" width="24" height="24"><path d="M7.4 10.05a1 1 0 0 1 1.42 0l2.76 2.75q.29.3.41.4l.01.01h.01l.41-.4 2.76-2.76.08-.07a1 1 0 0 1 1.4 1.4l-.06.08-2.76 2.76q-.28.29-.54.5-.26.26-.68.41a2 2 0 0 1-1.24 0q-.43-.16-.68-.4-.26-.22-.54-.51L7.4 11.46a1 1 0 0 1 0-1.41"/><path fill-rule="evenodd" d="M12 1A11 11 0 1 1 12 23A11 11 0 0 1 12 1M12 2.5A9.5 9.5 0 1 0 12 21.5A9.5 9.5 0 0 0 12 2.5" clip-rule="evenodd"/></svg>

<svg viewBox="0 0 24 24" xmlns="http://www.w3.org/2000/svg" width="24" height="24"><path d="M7.4 10.05A1 1 0 0 1 8.82 10.05L11.58 12.8Q11.87 13.1 11.99 13.2L12.42 12.81L15.26 9.98A1 1 0 0 1 16.66 11.38L13.84 14.22Q13.56 14.51 13.3 14.72Q13.04 14.98 12.62 15.13A2 2 0 0 1 11.38 15.13Q10.95 14.97 10.7 14.73Q10.44 14.51 10.16 14.22L7.4 11.46A1 1 0 0 1 7.4 10.05"/><path fill-rule="evenodd" d="M12 1A11 11 0 1 1 12 23A11 11 0 0 1 12 1M12 2.5A9.5 9.5 0 1 0 12 21.5A9.5 9.5 0 0 0 12 2.5" clip-rule="evenodd"/></svg>
